assets/images/award.svg

<svg width="24" height="24" viewBox="0 0 24 24" fill="none" xmlns="http://www.w3.org/2000/svg">
<path d="M17.5 7.63V5C17.5 3 16.5 2 14.5 2H9.5C7.5 2 6.5 3 6.5 5V7.56" stroke="#C6AAFF" stroke-width="1.5" stroke-linecap="round" stroke-linejoin="round"/>
<path d="M4 11.0187V15.9872C4 17.8067 4 17.8067 5.77778 18.9663L10.6667 21.6955C11.4005 22.1054 12.5995 22.1054 13.3333 21.6955L18.2222 18.9663C20 17.8067 20 17.8067 20 15.9872V11.0187C20 9.1992 20 9.19919 18.2222 8.03954L13.3333 5.31034C12.5995 4.90046 11.4005 4.90046 10.6667 5.31034L5.77778 8.03954C4 9.19919 4 9.1992 4 11.0187Z" fill="#F3EDFF" stroke="#8447FF" stroke-width="1.5" stroke-linecap="round" stroke-linejoin="round"/>
<path d="M12.5812 10.3874L13.1028 11.2386C13.1852 11.3725 13.3682 11.5064 13.5055 11.5446L14.439 11.7933C15.0156 11.9463 15.1712 12.4628 14.7959 12.941L14.1827 13.7157C14.0912 13.8401 14.018 14.0601 14.0272 14.2131L14.0821 15.2174C14.1187 15.839 13.6977 16.1547 13.1486 15.9251L12.2517 15.5521C12.1144 15.4947 11.8856 15.4947 11.7483 15.5521L10.8514 15.9251C10.3023 16.1547 9.88132 15.8295 9.91793 15.2174L9.97284 14.2131C9.98199 14.0601 9.90877 13.8305 9.81726 13.7157L9.20407 12.941C8.82884 12.4628 8.98443 11.9463 9.561 11.7933L10.4945 11.5446C10.6409 11.5064 10.824 11.3629 10.8972 11.2386L11.4188 10.3874C11.7483 9.87088 12.2608 9.87088 12.5812 10.3874Z" fill="#C6AAFF"/>
</svg>

<svg width="24" height="24" fill="none" xmlns="http://www.w3.org/2000/svg"><path d="M17.5 7.63V5c0-2-1-3-3-3h-5c-2 0-3 1-3 3v2.56" stroke="#C6AAFF" stroke-width="1.5" stroke-linecap="round" stroke-linejoin="round"/><path d="M4 11.019v4.968c0 1.82 0 1.82 1.778 2.98l4.889 2.729c.733.41 1.933.41 2.666 0l4.89-2.73C20 17.806 20 17.806 20 15.987V11.02c0-1.82 0-1.82-1.778-2.98L13.333 5.31c-.733-.41-1.933-.41-2.666 0l-4.89 2.73C4 9.2 4 9.2 4 11.019Z" fill="#F3EDFF" stroke="#8447FF" stroke-width="1.5" stroke-linecap="round" stroke-linejoin="round"/><path d="m12.581 10.387.522.852a.8.8 0 0 0 .402.306l.934.248c.577.153.732.67.357 1.148l-.613.775a.885.885 0 0 0-.156.497l.055 1.004c.037.622-.384.938-.933.708l-.897-.373a.757.757 0 0 0-.504 0l-.897.373c-.549.23-.97-.096-.933-.708l.055-1.004a.862.862 0 0 0-.156-.497l-.613-.775c-.375-.478-.22-.995.357-1.148l.934-.248a.777.777 0 0 0 .402-.306l.522-.852c.33-.516.842-.516 1.162 0Z" fill="#C6AAFF"/></svg>
